lib/logo_tmp/nrk-logo-nrk-folkemusikk.svg

<svg width="135" height="24" viewBox="0 0 135 24" fill="none" xmlns="http://www.w3.org/2000/svg">
<path d="M6.10352e-05 17.9966V5.99773H3.93725V17.9966H6.10352e-05ZM9.29387 7.90742L11.5581 17.9966H7.24923L4.54555 5.99773H6.96224C7.51641 5.99054 8.05412 6.18589 8.47456 6.54703C8.89568 6.89302 9.18501 7.37334 9.29387 7.90742ZM12.1496 17.9966V5.99773H16.0868V17.9966H12.1496ZM19.0605 10.5607C18.6363 10.5649 18.2188 10.4539 17.8526 10.2396C17.4913 10.0308 17.1912 9.7306 16.9823 9.36924C16.7678 9.00297 16.6568 8.5854 16.661 8.16096C16.6562 7.7391 16.7673 7.32402 16.9823 6.96107C17.1934 6.60363 17.4932 6.30674 17.8526 6.09916C18.2189 5.88515 18.6363 5.77416 19.0605 5.77803C19.4823 5.77349 19.8972 5.88457 20.2603 6.09916C20.6161 6.30856 20.9127 6.6052 21.1221 6.96107C21.3369 7.32412 21.448 7.73914 21.4434 8.16096C21.4473 8.58537 21.3363 9.00287 21.1221 9.36924C20.9149 9.72902 20.618 10.0289 20.2603 10.2396C19.8972 10.4546 19.4819 10.5657 19.06 10.5607H19.0605ZM22.0517 17.9966V5.99773H25.9892V17.9966H22.0517ZM30.9738 12.5549C30.9849 12.5665 31.0693 12.7045 31.2272 12.9689C31.3851 13.2333 31.5907 13.5713 31.844 13.9829C32.0975 14.3943 32.3649 14.8309 32.6464 15.2926C32.9278 15.7544 33.1927 16.191 33.4409 16.6024C33.6882 17.0138 33.9698 17.4786 34.2858 17.9966H29.9599C29.6893 17.5572 29.4442 17.1601 29.2245 16.8052C29.0049 16.4503 28.7714 16.0672 28.5239 15.656C28.2759 15.2451 28.0307 14.8452 27.7883 14.4561C27.5459 14.067 27.3376 13.7263 27.1633 13.4337C26.9883 13.141 26.8671 12.9438 26.7997 12.8422C26.6326 12.5901 26.5337 12.2989 26.5127 11.9972C26.5295 11.7076 26.6227 11.4276 26.7828 11.1858C26.8504 11.0731 26.9743 10.8731 27.1546 10.5858C27.3348 10.2985 27.5461 9.9577 27.7883 9.56337C28.0305 9.16904 28.2757 8.76625 28.5239 8.35502C28.7721 7.94379 29.0056 7.55788 29.2245 7.19735C29.4446 6.83719 29.6897 6.43723 29.9599 5.99746H34.2858L30.9397 11.4561C30.8361 11.6182 30.7778 11.805 30.7707 11.9972C30.7818 12.199 30.8523 12.393 30.9732 12.5549H30.9738Z" fill="white"/>
<path d="M39 17.9982H40.7745V13.0464H45.3037L45.4897 11.5764H40.7745V7.48627H46.9093V5.99905H39V17.9982Z" fill="white"/>
<path d="M53.9482 9.73463C53.2441 9.36046 52.4553 9.17414 51.6582 9.19378C50.8537 9.17545 50.0584 9.3677 49.3511 9.75148C48.6983 10.117 48.1646 10.6626 47.8135 11.3232C47.4318 12.0644 47.2428 12.8897 47.2639 13.723C47.2424 14.5499 47.4192 15.3698 47.7794 16.1144C48.1031 16.7643 48.6195 17.2984 49.2581 17.6439C49.9456 18.004 50.713 18.1843 51.4889 18.1678C52.3012 18.1839 53.1042 17.992 53.8214 17.6104C54.4908 17.2448 55.0398 16.6928 55.4016 16.0214C55.7942 15.2715 55.9891 14.4338 55.9678 13.5876C55.9871 12.7816 55.807 11.9834 55.4436 11.2638C55.1068 10.6178 54.5866 10.0858 53.9482 9.73463ZM53.8465 15.3961C53.657 15.8355 53.3351 16.2047 52.9257 16.4524C52.5147 16.688 52.0474 16.8078 51.5737 16.7991C51.1091 16.8108 50.6512 16.6875 50.2552 16.4442C49.8637 16.1839 49.5579 15.8136 49.3764 15.3798C49.1466 14.8232 49.0373 14.2242 49.0556 13.6222C49.0357 13.0365 49.1452 12.4536 49.3764 11.915C49.566 11.4918 49.882 11.1375 50.2809 10.901C50.7072 10.6663 51.1884 10.5497 51.6749 10.563C52.0548 10.5535 52.4323 10.6255 52.7821 10.7742C53.0883 10.9124 53.3555 11.1244 53.5595 11.3914C53.7773 11.6811 53.9352 12.0114 54.0239 12.3628C54.1297 12.7741 54.1808 13.1976 54.176 13.6222C54.1959 14.2304 54.0834 14.8356 53.8465 15.3961Z" fill="white"/>
<path d="M60.7248 16.7558C60.6659 16.7623 60.6067 16.7653 60.5474 16.7648C60.4201 16.7684 60.2935 16.7453 60.1758 16.6969C60.0736 16.6511 59.9859 16.578 59.9224 16.4856C59.8489 16.3762 59.7999 16.2521 59.7787 16.122C59.7481 15.9492 59.7339 15.7738 59.7364 15.5984V5.23883L58.0124 5.49237V16.3591C58.0052 16.644 58.0511 16.9277 58.1478 17.1957C58.2287 17.4136 58.3622 17.6081 58.5365 17.7619C58.7098 17.9108 58.9152 18.0177 59.1365 18.0745C59.382 18.1383 59.6348 18.1696 59.8885 18.1675C60.0237 18.1675 60.153 18.1618 60.2773 18.1508C60.4015 18.1399 60.5223 18.1227 60.6406 18.0999C60.7589 18.0771 60.8572 18.0548 60.936 18.0326L61.1051 16.6972L60.902 16.7309C60.835 16.7422 60.7758 16.7504 60.7248 16.7558Z" fill="white"/>
<path d="M70.1807 9.37908H68.0682L65.1763 12.5563H64.553V5.23883L62.8295 5.49237V17.9985H64.553V13.8579H64.5812L68.0341 17.9985H70.265L66.1656 13.3791L70.1807 9.37908Z" fill="white"/>
<path d="M77.7349 10.4691C77.4105 10.0487 76.9824 9.71965 76.4927 9.51432C75.9485 9.29218 75.365 9.18289 74.7773 9.19318C74.1853 9.18315 73.5979 9.29832 73.0535 9.53116C72.5583 9.74795 72.117 10.0711 71.7607 10.4776C71.3935 10.9046 71.1173 11.402 70.9492 11.9394C70.7566 12.5545 70.6626 13.1962 70.6706 13.8407C70.6467 14.655 70.8175 15.4633 71.1689 16.1983C71.4901 16.8352 72.0089 17.351 72.6476 17.6686C73.3972 18.0217 74.2196 18.1925 75.0477 18.1672C75.4461 18.1705 75.8442 18.1451 76.2389 18.0911C76.569 18.0436 76.8942 17.9673 77.2109 17.863C77.5249 17.7575 77.83 17.6275 78.1235 17.4742L78.2418 16.1729C78.0276 16.2518 77.8106 16.3307 77.5909 16.4096C77.3712 16.4884 77.1431 16.5589 76.9067 16.6208C76.668 16.6833 76.4252 16.7284 76.18 16.7557C75.9332 16.7842 75.6849 16.7984 75.4364 16.7982C74.9926 16.8054 74.5497 16.7571 74.1179 16.6546C73.7697 16.5711 73.4475 16.4028 73.1802 16.1645C72.9103 15.9072 72.7122 15.5839 72.6057 15.2265C72.4952 14.8646 72.4332 14.4896 72.4214 14.1114H78.5288C78.6121 13.4123 78.5808 12.7042 78.4359 12.0152C78.3171 11.4551 78.0778 10.9276 77.7349 10.4691ZM73.476 10.875C73.8724 10.634 74.3304 10.5135 74.7942 10.5283C75.2584 10.5051 75.7169 10.6391 76.0955 10.9086C76.432 11.1772 76.6721 11.5479 76.7797 11.9648C76.8643 12.2731 76.9058 12.5915 76.9031 12.9112H72.4586C72.4899 12.5742 72.5619 12.2422 72.6729 11.9225C72.8174 11.4941 73.0998 11.1257 73.476 10.875Z" fill="white"/>
<path d="M92.3193 9.5481C91.8586 9.29783 91.3393 9.17529 90.8153 9.1932C90.3604 9.19186 89.9088 9.26906 89.4802 9.42136C89.0449 9.57728 88.6349 9.79654 88.2636 10.072C88.0531 10.228 87.8528 10.3973 87.664 10.579C87.4907 10.1559 87.1851 9.80019 86.793 9.56502C86.3266 9.31347 85.8016 9.19095 85.272 9.21011C84.8201 9.21029 84.3714 9.28746 83.9453 9.43828C83.508 9.59216 83.0953 9.80841 82.7198 10.0804C82.5984 10.168 82.481 10.2629 82.3649 10.3621V9.21094L80.6411 9.46448V17.999H82.3649V11.5711C82.568 11.438 82.7798 11.3186 82.9987 11.2136C83.2668 11.087 83.5471 10.9879 83.8352 10.9179C84.1008 10.8524 84.3731 10.8183 84.6467 10.8164C84.8977 10.8089 85.1477 10.8521 85.3816 10.9435C85.5753 11.0254 85.7465 11.1528 85.8804 11.315C86.0271 11.5035 86.1283 11.7232 86.1762 11.9572C86.242 12.2597 86.2731 12.5687 86.2691 12.8783V17.999H87.9929V12.5231C87.9941 12.1998 87.9723 11.8769 87.9276 11.5567C88.123 11.4283 88.3253 11.3109 88.5337 11.2049C88.7972 11.0723 89.0749 10.9702 89.3615 10.9007C89.6327 10.8344 89.9108 10.8003 90.19 10.7992C90.4382 10.7931 90.6851 10.8362 90.9166 10.9261C91.1138 11.0063 91.2879 11.1341 91.4237 11.2981C91.5706 11.4862 91.6718 11.706 91.7191 11.94C91.7851 12.2424 91.8164 12.5513 91.8124 12.8608V17.9987H93.5362V12.5062C93.5577 11.8669 93.4544 11.2297 93.2319 10.63C93.0567 10.1778 92.7355 9.79703 92.3193 9.5481Z" fill="white"/>
<path d="M101.783 15.8947C101.656 15.9721 101.53 16.0442 101.403 16.1054C101.202 16.2036 100.996 16.2911 100.786 16.3676C100.585 16.4401 100.379 16.4967 100.169 16.5366C99.9547 16.5767 99.737 16.5965 99.5188 16.5957C99.1613 16.6094 98.8063 16.5309 98.4879 16.3679C98.2144 16.2123 98.0026 15.9677 97.8879 15.6747C97.7485 15.3111 97.6824 14.9235 97.6933 14.5342V9.21067L95.9695 9.46414V14.8381C95.9487 15.4795 96.0609 16.1182 96.2991 16.714C96.495 17.1841 96.8473 17.5721 97.2962 17.8126C97.7968 18.0621 98.3513 18.1841 98.9104 18.1678C99.2636 18.1702 99.6156 18.1276 99.9579 18.041C100.285 17.9565 100.6 17.8316 100.896 17.6692C101.201 17.5018 101.489 17.3065 101.758 17.0858C101.807 17.0456 101.856 16.9983 101.906 16.9557L102.155 17.9979H103.49L103.507 9.20984L101.783 9.46332V15.8947Z" fill="white"/>
<path d="M111.484 14.1114C111.311 13.9278 111.111 13.771 110.892 13.6464C110.665 13.5165 110.428 13.4063 110.182 13.3169C110.002 13.2606 109.825 13.2014 109.65 13.1394C109.475 13.0774 109.301 13.0211 109.126 12.9704C108.951 12.9197 108.782 12.8662 108.619 12.8099C108.466 12.7578 108.316 12.6956 108.171 12.6239C108.032 12.5501 107.899 12.4654 107.774 12.3705C107.658 12.2832 107.56 12.1741 107.487 12.0494C107.412 11.9213 107.374 11.7751 107.377 11.6269C107.372 11.4639 107.413 11.3029 107.495 11.1621C107.583 11.0237 107.706 10.9103 107.85 10.8326C108.027 10.7356 108.218 10.667 108.416 10.6295C108.664 10.5822 108.916 10.5596 109.168 10.5622C109.292 10.5622 109.427 10.568 109.574 10.579C109.72 10.59 109.881 10.6103 110.055 10.6385C110.23 10.6667 110.405 10.7033 110.579 10.7478C110.754 10.7923 110.931 10.8438 111.112 10.9001C111.279 10.9516 111.442 11.0137 111.602 11.0863L111.72 9.71715C111.506 9.62721 111.295 9.54823 111.086 9.48025C110.878 9.41295 110.667 9.35651 110.453 9.31122C110.244 9.26704 110.032 9.23605 109.819 9.21832C109.61 9.20142 109.405 9.19294 109.202 9.19294C108.735 9.18816 108.27 9.24212 107.816 9.35351C107.429 9.44791 107.06 9.60793 106.726 9.8267C106.424 10.0268 106.177 10.3 106.008 10.621C105.831 10.9748 105.744 11.3665 105.754 11.7618C105.749 12.0465 105.795 12.3298 105.89 12.5983C105.97 12.8237 106.09 13.0327 106.245 13.2152C106.395 13.3877 106.568 13.5384 106.76 13.6631C106.959 13.7941 107.172 13.9045 107.394 13.9926C107.517 14.0378 107.647 14.0828 107.782 14.1275C107.918 14.1722 108.05 14.2146 108.18 14.2548C108.309 14.2942 108.436 14.3336 108.56 14.3728C108.684 14.4125 108.805 14.4517 108.923 14.4912C109.041 14.5306 109.157 14.5672 109.27 14.601C109.421 14.6545 109.568 14.7195 109.709 14.7953C109.833 14.8609 109.949 14.9403 110.055 15.0319C110.149 15.1136 110.224 15.2145 110.275 15.3277C110.327 15.4446 110.353 15.5713 110.351 15.6992C110.357 15.8242 110.335 15.9491 110.287 16.0647C110.239 16.1802 110.165 16.2836 110.072 16.3673C109.863 16.542 109.613 16.661 109.346 16.7135C109.032 16.7827 108.712 16.8167 108.391 16.8149C108.19 16.8137 107.99 16.7995 107.791 16.7726C107.571 16.7445 107.34 16.7051 107.098 16.6544C106.856 16.6037 106.608 16.5417 106.354 16.4685C106.101 16.3952 105.845 16.3136 105.585 16.2237L105.653 17.6602C105.946 17.7616 106.213 17.8433 106.456 17.9052C106.698 17.9672 106.929 18.0207 107.149 18.0658C107.36 18.1097 107.575 18.1379 107.791 18.1503C107.999 18.1614 108.21 18.1669 108.425 18.1669C108.896 18.1694 109.366 18.121 109.827 18.023C110.233 17.9407 110.622 17.7893 110.977 17.5754C111.296 17.3802 111.561 17.1068 111.745 16.7811C111.939 16.4236 112.035 16.0216 112.024 15.6153C112.031 15.3188 111.983 15.0235 111.881 14.7449C111.79 14.5103 111.655 14.2953 111.484 14.1114Z" fill="white"/>
<path d="M115.547 5.66952C115.372 5.5623 115.17 5.50664 114.964 5.50895C114.756 5.50737 114.551 5.56292 114.373 5.66952C114.197 5.77287 114.049 5.91797 113.942 6.09202C113.835 6.26741 113.779 6.46951 113.781 6.6751C113.78 6.88326 113.835 7.08786 113.942 7.26656C114.045 7.4434 114.194 7.58931 114.373 7.68906C114.553 7.79039 114.757 7.84283 114.964 7.84118C115.169 7.84354 115.37 7.791 115.547 7.68906C115.721 7.58857 115.864 7.44249 115.961 7.26656C116.063 7.08601 116.115 6.88215 116.113 6.6751C116.116 6.47065 116.063 6.2693 115.961 6.09202C115.861 5.91875 115.718 5.77349 115.547 5.66952Z" fill="white"/>
<path d="M114.069 17.9982H115.793V9.21012L114.069 9.46359V17.9982Z" fill="white"/>
<path d="M125.781 9.37908H123.669L120.777 12.5563H120.153V5.23883L118.43 5.49237V17.9985H120.153V13.8579H120.182L123.634 17.9985H125.865L121.766 13.3791L125.781 9.37908Z" fill="white"/>
<path d="M132.507 17.9982H134.738L130.639 13.3788L134.654 9.37908H132.541L129.649 12.5563H129.026V5.23883L127.302 5.49237V17.9985H129.026V13.8579H129.054L132.507 17.9982Z" fill="white"/>
</svg>

<svg xmlns="http://www.w3.org/2000/svg" viewBox="0 0 135 24"><path fill="#fff" d="M0 17.997v-12h3.937v12H0Zm9.294-10.09 2.264 10.09H7.25l-2.703-12h2.416a2.276 2.276 0 0 1 1.513.55c.42.346.71.826.819 1.36Zm2.856 10.09v-12h3.937v12H12.15Zm6.91-7.436a2.382 2.382 0 0 1-2.4-2.4 2.303 2.303 0 0 1 .322-1.2A2.412 2.412 0 0 1 20.26 6.1c.356.21.653.506.862.862.215.363.326.778.321 1.2a2.4 2.4 0 0 1-1.183 2.079 2.303 2.303 0 0 1-1.2.32Zm2.992 7.436v-12h3.937v12h-3.937Zm8.922-5.442c.01.011.095.15.253.414s.364.602.617 1.014a327.152 327.152 0 0 1 1.597 2.62c.247.41.529.876.845 1.394H29.96c-.27-.44-.516-.837-.736-1.192-.22-.355-.453-.738-.7-1.149-.248-.41-.493-.81-.736-1.2-.242-.389-.45-.73-.625-1.022a18.04 18.04 0 0 0-.363-.592 1.75 1.75 0 0 1-.287-.845c.016-.29.11-.57.27-.811.067-.113.191-.313.372-.6a182.106 182.106 0 0 0 1.37-2.23c.247-.412.48-.798.7-1.159l.735-1.2h4.326l-3.346 5.46a1.079 1.079 0 0 0-.17.54c.012.202.082.396.203.558ZM39 17.998h1.775v-4.952h4.529l.186-1.47h-4.715v-4.09h6.134V6H39v12ZM53.948 9.735a4.637 4.637 0 0 0-2.29-.541 4.617 4.617 0 0 0-2.307.557 3.898 3.898 0 0 0-1.538 1.572 4.967 4.967 0 0 0-.55 2.4 5.182 5.182 0 0 0 .516 2.391c.324.65.84 1.184 1.48 1.53.687.36 1.454.54 2.23.524a4.765 4.765 0 0 0 2.332-.558 3.94 3.94 0 0 0 1.58-1.589c.393-.75.588-1.587.567-2.433a4.895 4.895 0 0 0-.524-2.324 3.694 3.694 0 0 0-1.496-1.53Zm-.102 5.661c-.189.44-.51.809-.92 1.056a2.622 2.622 0 0 1-1.352.347 2.403 2.403 0 0 1-1.319-.355 2.382 2.382 0 0 1-.879-1.064 4.266 4.266 0 0 1-.32-1.758c-.02-.585.09-1.168.32-1.707.19-.423.506-.777.905-1.014a2.735 2.735 0 0 1 1.394-.338c.38-.01.757.063 1.107.211.306.138.574.35.778.617.217.29.375.62.464.972.106.411.157.835.152 1.26a4.203 4.203 0 0 1-.33 1.773ZM60.725 16.756c-.06.006-.118.01-.178.009a.91.91 0 0 1-.371-.068.61.61 0 0 1-.254-.211.916.916 0 0 1-.143-.364 2.777 2.777 0 0 1-.043-.524V5.238l-1.724.254V16.36c-.007.285.04.569.136.837a1.41 1.41 0 0 0 .988.878c.246.064.499.096.752.093.136 0 .265-.005.39-.016a3.704 3.704 0 0 0 .659-.118l.168-1.336-.203.034c-.067.011-.126.02-.177.025ZM70.18 9.38h-2.112l-2.892 3.176h-.623V5.24l-1.723.253v12.506h1.723v-4.14h.028l3.453 4.14h2.231l-4.1-4.619 4.016-4ZM77.735 10.47a3.067 3.067 0 0 0-1.242-.956 4.338 4.338 0 0 0-1.716-.32 4.202 4.202 0 0 0-1.724.337c-.495.217-.936.54-1.292.947a4.136 4.136 0 0 0-.812 1.461 6.109 6.109 0 0 0-.278 1.902 5.118 5.118 0 0 0 .498 2.357c.321.637.84 1.153 1.479 1.47.75.354 1.572.524 2.4.5.398.003.796-.023 1.19-.077a5.704 5.704 0 0 0 1.886-.617l.118-1.301c-.214.079-.431.158-.651.237-.22.078-.448.149-.684.21a5.094 5.094 0 0 1-.727.136 6.437 6.437 0 0 1-.744.042 5.334 5.334 0 0 1-1.318-.143 2.17 2.17 0 0 1-.938-.49 2.14 2.14 0 0 1-.574-.938 4.275 4.275 0 0 1-.185-1.116h6.108c.083-.699.052-1.407-.093-2.096a3.95 3.95 0 0 0-.701-1.546Zm-4.259.405a2.39 2.39 0 0 1 1.318-.347c.464-.023.923.111 1.302.38.336.27.576.64.684 1.057.084.308.126.627.123.946H72.46c.03-.337.103-.669.214-.989.144-.428.427-.796.803-1.047ZM92.32 9.548a2.94 2.94 0 0 0-1.505-.355 3.952 3.952 0 0 0-1.335.228 4.705 4.705 0 0 0-1.216.651c-.21.156-.411.325-.6.507a2.12 2.12 0 0 0-.871-1.014 2.977 2.977 0 0 0-1.521-.355c-.452 0-.9.077-1.327.228a4.812 4.812 0 0 0-1.58.924V9.211l-1.724.253V18h1.724v-6.428c.203-.133.415-.252.634-.357.268-.127.548-.226.836-.296.266-.066.538-.1.812-.102.25-.007.5.036.735.127.193.082.364.21.498.372.147.189.248.408.296.642.066.303.097.612.093.921V18h1.724v-5.476a6.806 6.806 0 0 0-.065-.966c.195-.129.397-.246.606-.352.263-.133.54-.235.828-.304.27-.067.549-.1.828-.102a1.88 1.88 0 0 1 .727.127c.197.08.37.208.507.372.147.188.248.408.295.642.066.302.097.611.093.92V18h1.724v-5.493a4.918 4.918 0 0 0-.304-1.876 2.177 2.177 0 0 0-.913-1.082ZM101.783 15.895c-.127.077-.253.15-.38.21a6.382 6.382 0 0 1-.617.263 4.04 4.04 0 0 1-.617.169c-.214.04-.432.06-.65.059a2.087 2.087 0 0 1-1.031-.228 1.374 1.374 0 0 1-.6-.693 2.955 2.955 0 0 1-.195-1.14V9.21l-1.724.253v5.374c-.02.642.092 1.28.33 1.876.196.47.548.858.997 1.099.5.25 1.055.371 1.614.355a4.062 4.062 0 0 0 1.986-.499c.305-.167.593-.363.862-.583.049-.04.098-.088.148-.13l.249 1.042h1.335l.017-8.788-1.724.253v6.432ZM111.484 14.111a2.539 2.539 0 0 0-.592-.465 4.574 4.574 0 0 0-.71-.33c-.18-.055-.357-.115-.532-.177a9.397 9.397 0 0 0-.524-.169 10.52 10.52 0 0 1-.507-.16 3.709 3.709 0 0 1-.448-.186 2.925 2.925 0 0 1-.397-.254 1.096 1.096 0 0 1-.287-.32.804.804 0 0 1-.11-.423.87.87 0 0 1 .118-.465.962.962 0 0 1 .355-.33c.177-.096.368-.165.566-.203.248-.047.5-.07.752-.067a5.474 5.474 0 0 1 .887.077c.175.028.35.064.524.109.175.044.352.096.533.152.167.052.33.114.49.186l.118-1.369a8.115 8.115 0 0 0-.634-.237 6.276 6.276 0 0 0-.633-.169 5.121 5.121 0 0 0-.634-.093 7.642 7.642 0 0 0-.617-.025 5.573 5.573 0 0 0-1.386.16 3.507 3.507 0 0 0-1.09.474 2.16 2.16 0 0 0-.718.794 2.413 2.413 0 0 0-.254 1.14c-.005.286.041.569.136.837.08.226.2.435.355.617.15.173.323.323.515.448.199.131.412.242.634.33a23.674 23.674 0 0 0 .786.262 40.851 40.851 0 0 1 .743.236c.118.04.234.076.347.11.151.053.298.118.439.194.124.066.24.145.346.237a.86.86 0 0 1 .296.667.848.848 0 0 1-.279.668 1.62 1.62 0 0 1-.726.346c-.314.07-.634.104-.955.102a4.683 4.683 0 0 1-.6-.042 8.864 8.864 0 0 1-.693-.119c-.242-.05-.49-.112-.744-.186a15.853 15.853 0 0 1-.769-.244l.068 1.436c.293.102.56.183.803.245.242.062.473.116.693.16.211.045.426.073.642.085.208.011.419.017.634.017.471.002.941-.046 1.402-.144a3.623 3.623 0 0 0 1.15-.448c.319-.195.584-.468.768-.794.194-.357.29-.76.279-1.166a2.369 2.369 0 0 0-.143-.87 1.985 1.985 0 0 0-.397-.634ZM115.547 5.67a1.092 1.092 0 0 0-.583-.161 1.135 1.135 0 0 0-.591.16 1.248 1.248 0 0 0-.431.423 1.1 1.1 0 0 0-.161.583 1.14 1.14 0 0 0 .161.592c.103.176.252.322.431.422.18.101.384.154.591.152.205.003.406-.05.583-.152.174-.1.317-.247.414-.422.102-.181.154-.385.152-.592a1.136 1.136 0 0 0-.152-.583 1.194 1.194 0 0 0-.414-.422ZM114.069 17.998h1.724V9.21l-1.724.254v8.534ZM125.781 9.38h-2.112l-2.892 3.176h-.624V5.24l-1.723.253v12.506h1.723v-4.14h.029l3.452 4.14h2.231l-4.099-4.619 4.015-4ZM132.507 17.998h2.231l-4.099-4.62 4.015-3.999h-2.113l-2.892 3.177h-.623V5.24l-1.724.253v12.506h1.724v-4.14h.028l3.453 4.14Z"/></svg>
